X:1
T:Dr stod en flicka
C:Ola Olsson Feuer
C:Trad
R:Vals
Z:Patrik Mnsson, 4/7 2008
O:Skne
M:3/4
L:1/8
K:G
Q:1/4=120
|:G3/2B/2d2dd| e3/2f/2 gf ed| e3/2e/2d3-d/2B/2| c3/2c/2[B4D4]:||:G3/2B/2 d3/2e< dc/2|
A3/2B/2c2B3/2A/2| G3/2B/2 d3/2e< dc/2| A3/2B/2c2B3/2A/2| G3/2B/2d2e3/2c/2| A3/2F/2G4:|
